assets/svg/bell-ringing.svg

<svg fill="none" height="24" viewBox="0 0 24 24" width="24" xmlns="http://www.w3.org/2000/svg"><path d="m15.6459 18.0148c.4288 1.6004-.5209 3.2454-2.1213 3.6742s-3.2454-.5209-3.67424-2.1213m-7.79353-7.9544c-.38949-1.3982.01555-2.90981 1.05195-3.92592m9.03752-1.94653c.3042-.5473.4044-1.2088.2296-1.8614-.3574-1.33366-1.7282-2.12512-3.0619-1.76777-1.33366.35736-2.12512 1.7282-1.76776 3.06187.17486.65259.59239 1.17536 1.12949 1.49724m11.64327.04921c-.3618-1.40561-1.4684-2.51221-2.874-2.87398m.0456 5.59926c-.3569-1.33213-1.3098-2.44609-2.6491-3.09683-1.3393-.65073-2.9552-.78493-4.4923-.37307-1.53706.41186-2.86939 1.33604-3.70387 2.56923-.83448 1.23318-1.10275 2.67439-.74581 4.00649.59058 2.2041.4759 3.9624.10295 5.2986-.42507 1.5228-.6376 2.2843-.58019 2.4372.0657.1749.11321.2229.28745.2904.15229.059.79206-.1124 2.0716-.4553l11.86507-3.1792c1.2795-.3429 1.9193-.5143 2.0217-.6415.1171-.1456.1343-.2109.1037-.3953-.0267-.1611-.5915-.7142-1.721-1.8205-.9911-.9707-1.9696-2.4362-2.5602-4.64022z" stroke="#000" stroke-linecap="round" stroke-linejoin="round" stroke-width="2"/></svg>

<svg width="24" height="24" viewBox="0 0 24 24" fill="none" xmlns="http://www.w3.org/2000/svg">
<path d="M15.6459 18.0148C16.0747 19.6152 15.125 21.2602 13.5246 21.689C11.9242 22.1178 10.2792 21.1681 9.85036 19.5677M2.05683 11.6133C1.66734 10.2151 2.07238 8.70349 3.10878 7.68738M12.1463 5.74085C12.4505 5.19355 12.5507 4.53205 12.3759 3.87945C12.0185 2.54579 10.6477 1.75433 9.314 2.11168C7.98034 2.46904 7.18888 3.83988 7.54624 5.17355C7.7211 5.82614 8.13863 6.34891 8.67573 6.67079M20.319 6.72C19.9572 5.31439 18.8506 4.20779 17.445 3.84602M17.4906 9.44528C17.1337 8.11315 16.1808 6.99919 14.8415 6.34845C13.5022 5.69772 11.8863 5.56352 10.3492 5.97538C8.81214 6.38724 7.47981 7.31142 6.64533 8.54461C5.81085 9.77779 5.54258 11.219 5.89952 12.5511C6.4901 14.7552 6.37542 16.5135 6.00247 17.8497C5.5774 19.3725 5.36487 20.134 5.42228 20.2869C5.48798 20.4618 5.53549 20.5098 5.70973 20.5773C5.86202 20.6363 6.50179 20.4649 7.78133 20.122L19.6464 16.9428C20.9259 16.5999 21.5657 16.4285 21.6681 16.3013C21.7852 16.1557 21.8024 16.0904 21.7718 15.906C21.7451 15.7449 21.1803 15.1918 20.0508 14.0855C19.0597 13.1148 18.0812 11.6493 17.4906 9.44528Z" stroke="black" stroke-width="2" stroke-linecap="round" stroke-linejoin="round"/>
</svg>
